X: 17019
T: Heart Of The Heartland
R: waltz
M: 3/4
K: Gmajor
|:zBA|G4 A2|B3 G Bd|e6|d3 z gf|g2 d2 BA|G3 A BG|E6|D3 zBA|
G4 A2|B3 G Bd|e6|d3 z gf|g2 d2 BA|B3 A GF|G6-|G3:|
|:GBd|e4- ed|e4- ed|e2 g4-|g2 f2 e2|d3 e d2|B3 A GB|E6-|E3 zBA|
G4 A2|B3 G Bd|e6|d3 z gf|g2 d2 BA|B3 A GF|G6-|G3:|

